app/style/icons/menu-wallet.svg

<svg viewBox="1181 1574 16 16" xmlns="http://www.w3.org/2000/svg"><path d="m1181 1574h16v16h-16z" fill="none"/><path d="m28.9 85.043c0-.014 0-.028.007-.043-.007.014-.007.028-.007.043z" fill="#8795a3" transform="translate(1153.128 1492.022)"/><path d="m30.28 60.37 10.77-.395v-1.875a1.2 1.2 0 0 0 -1.2-1.2h-9.57a1.2 1.2 0 0 0 -1.18 1c.1.564.59 2.47 1.18 2.47z" fill="#09182d" transform="translate(1152.935 1519.123)"/><path d="m28.8 86.539c0-.014 0-.025 0-.039a.159.159 0 0 0 0 .039z" fill="#8795a3" transform="translate(1153.225 1490.575)"/><path d="m28.7 88.328a.078.078 0 0 1 0-.028.078.078 0 0 0 0 .028z" fill="#8795a3" transform="translate(1153.321 1488.839)"/><path d="m351.2 185.4a2.493 2.493 0 0 0 2.492 2.492v-4.992a2.494 2.494 0 0 0 -2.492 2.5z" fill="#09182d" transform="translate(842.288 1397.603)"/><path d="m41.368 86.1h-11.568a1.2 1.2 0 0 1 -1.18-1c0 .014 0 .028-.007.043v.011.039a.069.069 0 0 1 0 .025.078.078 0 0 1 0 .028v9.614a1.2 1.2 0 0 0 1.2 1.2h11.57a1.2 1.2 0 0 0 1.2-1.2v-1.287a2.492 2.492 0 0 1 0-4.985v-1.288a1.2 1.2 0 0 0 -1.215-1.2z" fill="#69d5f7" transform="translate(1153.417 1491.926)"/></svg>

<svg xmlns="http://www.w3.org/2000/svg" viewBox="1181 1574 16 16"><defs><style>.a{fill:none;}.b{fill:#8795a3;}.c{fill:#09182d;}.d{fill:#69d5f7;}</style></defs><g transform="translate(1162 893)"><rect class="a" width="16" height="16" transform="translate(19 681)"/><g transform="translate(20.017 683.023)"><g transform="translate(0.004)"><path class="b" d="M28.9,85.043c0-.014,0-.028.007-.043C28.9,85.014,28.9,85.028,28.9,85.043Z" transform="translate(-28.893 -84.001)"/><path class="c" d="M30.28,60.37l10.77-.395V58.1a1.2,1.2,0,0,0-1.2-1.2H30.28a1.2,1.2,0,0,0-1.18,1C29.2,58.464,29.69,60.37,30.28,60.37Z" transform="translate(-29.086 -56.9)"/><path class="b" d="M28.8,86.539c0-.014,0-.025,0-.039A.159.159,0,0,0,28.8,86.539Z" transform="translate(-28.796 -85.448)"/><path class="b" d="M28.7,88.328a.078.078,0,0,1,0-.028A.078.078,0,0,0,28.7,88.328Z" transform="translate(-28.7 -87.184)"/><path class="c" d="M351.2,185.4a2.493,2.493,0,0,0,2.492,2.492V182.9A2.494,2.494,0,0,0,351.2,185.4Z" transform="translate(-339.733 -178.42)"/></g><path class="d" d="M41.368,86.1H29.8a1.2,1.2,0,0,1-1.18-1h0c0,.014,0,.028-.007.043v.011c0,.011,0,.025,0,.039a.069.069,0,0,1,0,.025.078.078,0,0,1,0,.028V94.86a1.2,1.2,0,0,0,1.2,1.2h11.57a1.2,1.2,0,0,0,1.2-1.2V93.573a2.492,2.492,0,0,1,0-4.985V87.3A1.2,1.2,0,0,0,41.368,86.1Z" transform="translate(-28.6 -84.097)"/></g></g></svg>
